X: 694
T: Caochuan jiejian
%%abc-version 2.0
%%abcx-abcm2ps-target-version 5.9.1 (29 Sep 2008)
%%abc-creator hum2abc beta
%%abcx-conversion-date 2013/10/02 07:52:30
%%abc-edited-by Helmut Schaffrath
%%humdrum-veritas 3713085974
%%humdrum-veritas-data 1587568591
%%continueall 1
%%barnumbers 0
L: 1/8
M: 2/4
K: F
d d d A [I:setbarnb 1]| 
cc2f | 
d c A D | 
F4 | 
dF2G | 
A d c A | 
G c A G | 
F DF2 | 
F G c A | 
G A G F | 
G G G C | 
D D F D | 
C4 |]  



